build/documents/FolderSolid.svg

<svg xmlns="http://www.w3.org/2000/svg" fill="none" viewBox="0 0 24 24" focusable="false"><path d="M0 0H24V24H0z"/><path fill="#74767B" fill-rule="evenodd" d="M20 18.6037C20 19.3217 19.418 19.9037 18.7 19.9037L5.3 19.9037C4.58203 19.9037 4 19.3217 4 18.6037L4 5.31355C4 4.59558 4.58203 4.01355 5.30001 4.01355L9.45618 4.01357C10.1871 4.01358 10.8929 4.28045 11.441 4.76406L12.7676 5.93455C13.3157 6.41817 14.0215 6.68505 14.7525 6.68505L18.7 6.68505C19.418 6.68505 20 7.26708 20 7.98505L20 18.6037ZM5.3 8.81939L8.83805 8.81941C9.569 8.81941 10.2748 9.08628 10.8229 9.5699L12.1494 10.7404C12.6975 11.224 13.4034 11.4909 14.1343 11.4909L18.7 11.4909L18.7 7.98505L14.7525 7.98505C13.7047 7.98505 12.6931 7.60253 11.9075 6.90934L10.5809 5.73885C10.2703 5.4648 9.87038 5.31357 9.45617 5.31357L5.3 5.31355L5.3 8.81939Z"/></svg>

<svg xmlns="http://www.w3.org/2000/svg" fill="none" viewBox="0 0 24 24" focusable="false"><path fill="#74767B" fill-rule="evenodd" d="M20 18.6c0 .72-.59 1.3-1.3 1.3H5.3c-.72 0-1.3-.58-1.3-1.3V5.31c0-.72.58-1.3 1.3-1.3h4.15c.73 0 1.44.27 1.99.75l1.32 1.17c.55.48 1.26.75 1.99.75h3.95c.71 0 1.3.58 1.3 1.3zM5.3 8.81h3.53c.73 0 1.44.27 1.99.75l1.32 1.18c.55.48 1.26.75 1.99.75h4.57V7.98h-3.95c-1.05 0-2.06-.38-2.85-1.08l-1.32-1.17c-.31-.27-.71-.42-1.13-.42H5.3z"/></svg>
